X:197 
T:We'll Drink Good Health (hornpipe) 
B:DMI.0955
F:file ID dmi1001/197well_dgh
Z:Nordberg/Black
R:hornpipe
Q:150
M:C|
L:1/8
K:D
(3ABc|dcec dBAF|"**"DCEC DEFG|Adcd BGED|CDEF E2(3ABc|
d2ec dBAF|"**"DCEC DEFG|Adcd BGEC|D2DD D2:|
FG|ABcd edeg|fdec dcde|fdec dBAF|E2ED E2 (3ABc|
d2ec dBAF|DCEC DEFG|Adcd BGEC|D2DD D2:|
P:alternate for ** / DEGE DEFG /

